!! 00049] TT[KA
!! NN
!!!OTL: Si nian
!!!ARE: Neimeng Wulanchabumeng
!! Ethnic Group: Menggu
!! IV, 349 (1)
!!!SCT: C0421
!!!YEM: Copyright 1995, estate of Helmut Schaffrath.
**kern
*ICvox
*Ivox
*M2/4
*k[b-]
*F:
{8dd
16cc
16a
16cc
16dd
8ff
=1
4.cc
16dd
16ff
=2
8dd
16cc
16a
16cc
16dd
8ff
=3
2cc}
=4
{8cc
16dd
16cc
8.ff
16dd
=5
16cc
16dd
8ff
16dd
16cc
8a
=6
16a
16g
8f
16g
16a
16dd
16cc
=7
2f}
==
!!!AGN: Duan ge. NannÅ siqing
!! sehr bekannt.
!!!ONB: ESAC (Essen Associative Code) Database: CHINA
!!!AMT: simple duple
!!!AIN: vox
!!!EED: Helmut Schaffrath
!!!EEV: 1.0
*-
